!!!SOCIAL_FUNCTION:	love songs
!!!PDT:	1909
!!!OTL: No_140_When_I_Think_of_Him.krn
!!!REG: Great_Lakes
!!!LANG: Non-Tone
!!!LING_GROUP: Algonquin
**kern
*staff1
*clefF4
*k[f#c#g#]
*M2/4
8c#\L
8c#\J
=1
4.c#\
8c#\
=2
8c#\L
8c#\J
8d#\L
8e\J
=3||
*M3/4
2c#\
8c#\L
8c#\J
=4||
*M2/4
4.c#\
8c#\
=5
8B\L
8A\J
8B\L
8A\J
=6||
*M3/4
2F#\
8F#\L
8F#\J
=7||
*M2/4
4.F#\
8F#\
=8
8F#\L
8F#\J
8G#\L
8A\J
=9
2F#\
=10
8A\L
8A\J
8c#\L
8c#\J
=11||
*M3/4
8B\L
8B\J
8B\L
8A\J
(8.B\L
16A\Jk)
=12||
*M2/4
2F#\
=13
4..A\
16c#\
=14
4.F#\
8F#\
=15
8F#/L
8C#/J
8F#\L
8F#\J
=16
4.F#\
8C#/
=17||
*M3/4
8F#\L
8F#\J
(4.C#/
8BB/)
=18
4BB/
8AA/L
8FF#/J
8C#/L
8C#/J
=19||
*M2/4
4.C#/
8C#/
=20
8BB/L
8AA/J
8BB/L
8AA/J
=21
2FF#/
==
*-
